src/browser/themes/shared/zen-icons/lin/settings.svg

#filter dumbComments emptyLines substitution
# This Source Code Form is subject to the terms of the Mozilla Public
# License, v. 2.0. If a copy of the MPL was not distributed with this
# file, You can obtain one at http://mozilla.org/MPL/2.0/.
<svg xmlns="http://www.w3.org/2000/svg" height="18" width="18" viewBox="0 0 18 18"><g stroke-linecap="round" stroke-width="1.5" fill="none" stroke="context-fill" stroke-opacity="context-fill-opacity" stroke-linejoin="round" class="nc-icon-wrapper"><circle cx="9" cy="8.999" r="1.75" fill="context-fill" data-color="color-2"></circle><path d="m15.175,7.278l-.929-.328c-.102-.261-.219-.52-.363-.77s-.31-.48-.485-.699l.18-.968c.125-.671-.187-1.349-.778-1.69l-.351-.203c-.592-.342-1.334-.273-1.853.171l-.745.637c-.56-.086-1.133-.086-1.703,0l-.745-.638c-.519-.444-1.262-.513-1.853-.171l-.351.203c-.592.341-.903,1.019-.778,1.69l.18.965c-.36.449-.646.946-.852,1.474l-.924.326c-.644.227-1.075.836-1.075,1.519v.405c0,.683.431,1.292,1.075,1.519l.929.328c.102.261.218.519.363.769s.31.48.485.7l-.181.968c-.125.671.187,1.349.778,1.69l.351.203c.592.342,1.334.273,1.853-.171l.745-.638c.559.086,1.132.086,1.701,0l.746.639c.519.444,1.262.513,1.853.171l.351-.203c.592-.342.903-1.019.778-1.69l-.18-.966c.359-.449.646-.945.851-1.473l.925-.326c.644-.227,1.075-.836,1.075-1.519v-.405c0-.683-.431-1.292-1.075-1.519h.002Z"></path></g></svg>

#filter dumbComments emptyLines substitution
# This Source Code Form is subject to the terms of the Mozilla Public
# License, v. 2.0. If a copy of the MPL was not distributed with this
# file, You can obtain one at http://mozilla.org/MPL/2.0/.
<svg height="18" width="18" viewBox="0 0 18 18" id="svg1" fill="context-fill" fill-opacity="context-fill-opacity" xmlns="http://www.w3.org/2000/svg" xmlns:svg="http://www.w3.org/2000/svg"><g stroke-linecap="round" stroke-width="1.5" fill="none" stroke="context-fill" stroke-opacity="context-fill-opacity" stroke-linejoin="round" class="nc-icon-wrapper" id="g1"><path id="path1" d="M 15.175,7.278 14.246,6.95 C 14.144,6.689 14.027,6.43 13.883,6.18 13.739,5.93 13.573,5.7 13.398,5.481 l 0.18,-0.968 C 13.703,3.842 13.391,3.164 12.8,2.823 L 12.449,2.62 C 11.857,2.278 11.115,2.347 10.596,2.791 L 9.851,3.428 C 9.291,3.342 8.718,3.342 8.148,3.428 L 7.403,2.79 C 6.884,2.346 6.141,2.277 5.55,2.619 L 5.199,2.822 C 4.607,3.163 4.296,3.841 4.421,4.512 l 0.18,0.965 C 4.241,5.926 3.955,6.423 3.749,6.951 L 2.825,7.277 C 2.181,7.504 1.75,8.113 1.75,8.796 v 0.405 c 0,0.683 0.431,1.292 1.075,1.519 l 0.929,0.328 c 0.102,0.261 0.218,0.519 0.363,0.769 0.145,0.25 0.31,0.48 0.485,0.7 l -0.181,0.968 c -0.125,0.671 0.187,1.349 0.778,1.69 l 0.351,0.203 c 0.592,0.342 1.334,0.273 1.853,-0.171 l 0.745,-0.638 c 0.559,0.086 1.132,0.086 1.701,0 l 0.746,0.639 c 0.519,0.444 1.262,0.513 1.853,0.171 l 0.351,-0.203 c 0.592,-0.342 0.903,-1.019 0.778,-1.69 l -0.18,-0.966 c 0.359,-0.449 0.646,-0.945 0.851,-1.473 l 0.925,-0.326 c 0.644,-0.227 1.075,-0.836 1.075,-1.519 V 8.797 c 0,-0.683 -0.431,-1.292 -1.075,-1.519 z M 10.75,8.9989996 A 1.75,1.75 0 0 1 9,10.749 1.75,1.75 0 0 1 7.25,8.9989996 a 1.75,1.75 0 0 1 1.75,-1.75 1.75,1.75 0 0 1 1.75,1.75 z"/></g></svg>
